icon-themes/breeze_svg/cmd/lc_dbindexdesign.svg

<svg viewBox="0 0 24 24" xmlns="http://www.w3.org/2000/svg"><path d="m15 4v2h-10c-.5522847 0-1 .4477153-1 1s.4477153 1 1 1v2h2v-2h2v2h2v-2h4v2h4v-6zm1 1h2v4h-2zm-12 6v9h16zm1 1.800781 11.099609 6.199219h-11.099609z" fill="#4d4d4d"/></svg>

<svg xmlns="http://www.w3.org/2000/svg" viewBox="0 0 24 24">
 <path 
     style="fill:#4d4d4d" 
     d="M 15 4 L 15 6 L 5 6 C 4.4477153 6 4 6.4477153 4 7 C 4 7.5522847 4.4477153 8 5 8 L 5 10 L 7 10 L 7 8 L 9 8 L 9 10 L 11 10 L 11 8 L 15 8 L 15 10 L 19 10 L 19 4 L 15 4 z M 16 5 L 18 5 L 18 9 L 16 9 L 16 5 z M 4 11 L 4 20 L 20 20 L 4 11 z M 5 12.800781 L 16.099609 19 L 5 19 L 5 12.800781 z "
     />
 </svg>
